X:980
T: Bucket of Berries
S: B.Breathnach:"Ceol Rince na hEireann" IV/81 (gan ainm)
Z: B.Black
L: 1/8
M: 2/4
Q: 280
R: polka
K: Ador
AB/A/ GE|cd ed|cA GE|G2 GE|
AB/A/ GE|cd ed|cA BG|A2 A2 :|
ea ag|ed ed|cd ef|g2 fg|
ea ag|ed ed|cA BG|A2 A2|
ea ag|ed ed|cd ef|g2 fg|
af ge|fd ed|cA BG|A2 A2 ||
